!!!COM: Carl Loewe				
!!!CNT: Deutscher				
!!!TXO: Deutsch				
!!!OTL: "Des Glockenthu2rmers To2chterlein"				
!!!LYR: Ru2ckert					 			
!!!OPS: Op. 112a 				 			
!!!ENC: O'Neal Douglas 					
!!!YOR: Twelve Songs and Ballads Vol. 1 and 2				
!!!YOR: New York:Schirmer, 1903					
!!!ODT: 1847/					
!!NB: Vocal melody and text encoded.
**kern	**text
*staff1	*staff1
=1-	=1-
*clefG2	*
*k[b-e-a-]	*
*M3/4	*
*MM70	*
4r	.
4r	.
8r	.
{8b-	{Mein
=2	=2
4.b-	hoch-
8e-	-ge-
8f	-bor'-
8g	-nes
=3	=3
8.B-	Scha2t-
16c	-ze-
4B-	-lein,
8r	.
8b-	des
=4	=4
[4b-	Glo-
(16b-]	|
16ee-)	|
(16b-	-cken-
16g)	|
(16e-	-thu2r-
16g)	|
(16e-	-mers
16c)	|
=5	=5
8.B-	To2ch-
16c	-ter-
4B-}	-lein,}
8r	.
{8g	{mahnt
=6	=6
[4g	mich
(16g]	|
16a-)	|
(16g	bei
16a-)	|
(16g	Nacht
16f)	|
(16e-	und
16d)	|
=7	=7
(16.e-	Ta-
32f	|
16.d	|
32e-)	|
4c	-ge
8r	.
8g	mit
=8	=8
[4g	je-
16g]	|
(b-q	|
16a-)	|
16g	-dem
(b-q	|
16a-)	|
(16g	Glo-
16f)	|
(16e-	-cken-
16d)	|
=9	=9
(16.e-	-schla-
32f	|
16.d	|
32e-)	|
4c}	-ge:}
4r	.
=10	=10
4r	.
4r	.
8r	.
{8f	{ge-
=11	=11
8.e-	-den-
16e-	-ke
4e-	mein,
4r	.
=12	=12
4r	.
4r	.
8r	.
8a-	ge-
=13	=13
8.g	-den-
16g	-ke
4g}	mein!}
8r	.
{8g	{Mein
=14	=14
4.cc	hoch-
8e-	-ge-
8f	-bor'-
8g	-nes
=15	=15
8.G	Scha2t-
16A-	-ze-
4G	-lein,
8r	.
8g	des
=16	=16
[4cc	Glo-
(16cc]	|
16a-)	|
(16g	-cken-
16a-)	|
(16g	-thu2r-
16e-)	|
(16c	-mers
16d)	|
=17	=17
8.G	Toch-
16A-	-ter-
4G}	-lein,}
8r	.
{8g	{ruft
=18	=18
[4g	mich
(16g]	|
16a-)	|
(16g	zu
16a-)	|
(16g	je-
16f)	|
(16e-	-der
16d)	|
=19	=19
(16.e-	Stun-
32f	|
16.d	|
32e-)	|
4c	-de
8r	.
8e-	wohl
=20	=20
[4b-	mit
(16b-]	|
16cc)	|
(16b-	der
16cc)	|
(16b-	Glo-
16a-)	|
(16g	-cken
16f)	|
=21	=21
(16.g	Mun-
32a-	|
16.f	|
32g)	|
4e-}	-de:}
8r	.
{8b-	{ich
=22	=22
(16b-	har-
16bn	|
16cc	|
16g	|
16a-	|
16c	|
4f)	|
([8a-	|
=23	=23
16a-]	|
16cc	|
16b-	|
16e-	|
16g	|
16B-	|
4e-)	|
([8g	|
=24	=24
16g]	|
16b-	|
16a-	|
16c	|
16d	|
16B-	|
4f)	|
8A-	-re
=25	=25
8G	dein,
8G	ja
4b-}	dein,}
8r	.
{8b-	{ich
=26	=26
(16b-	har-
16bn	|
16cc	|
16g	|
16a-	|
16c	|
4f)	|
([8a-	|
=27	=27
16a-]	|
16cc	|
16b-	|
16e-	|
16g	|
16B-	|
4e-)	|
([8g	|
=28	=28
16g]	|
16b-	|
16a-	|
16c	|
16d	|
16B-	|
4f)	|
8d	-re
=29	=29
8e-	dein,
8G	nur
[2b-	dein!
=30	=30
2.b-_	|
=31	=31
2b-]}	|}
4r	.
=32	=32
2.r	.
=33	=33
4r	.
4r	.
8r	.
{8b-	{Mein
=34	=34
4.b-	hoch-
8e-	-ge-
8f	-bor'-
8g	-nes
=35	=35
8.B-	Scha2t-
16c	-ze-
4B-	-lein,
8r	.
8b-	des
=36	=36
[4b-	Glo-
(16b-]	|
16ee-)	|
(16b-	-cken-
16g)	|
(16e-	-thu2r-
16g)	|
(16e-	-mers
16c)	|
=37	=37
8.B-	To2ch-
16c	-ter-
4B-}	-lein,}
8r	.
{8g	{es
=38	=38
[4g	stellt
(16g]	|
16a-)	|
(16g	die
16a-)	|
(16g	Uhr
16f)	|
(16e-	mit
16d)	|
=39	=39
(16.e-	Glu2-
32f	|
16.d	|
32e-)	|
4c	-cke
8r	.
8g	bald
=40	=40
[4g	vor
16g]	|
(b-q	|
16a-)	|
16g	und
(b-q	|
16a-)	|
(16g	bald
16f)	|
(16e-	zu-
16d)	|
=41	=41
(16.e-	-ru2-
32f	|
16.d	|
32e-)	|
4c}	-cke,}
4r	.
=42	=42
8r	.
{8c	{so
8c	wie's
8c	uns
8f	mag
8f	ge-
=43	=43
8.e-	-le-
16e-	-gen
4e-	sein,
4r	.
=44	=44
8r	.
8c	so
8c	wie's
8c	uns
8a-	mag
8a-	ge-
=45	=45
8.g	-le-
16g	-gen
4g}	sein.}
8r	.
{8g	{Mein
=46	=46
4.cc	hoch-
8e-	-ge-
8f	-bor'-
8g	-nes
=47	=47
8.G	Scha2t-
16A-	-ze-
4G	-lein,
8r	.
8g	sollt'
=48	=48
[4cc	es
(16cc]	|
16a-)	|
(16g	nicht
16a-)	|
(16g	hoch-
16e-)	|
(16c	-ge-
16d)	|
=49	=49
8.G	-bo-
16A-	-ren
4G}	sein?}
8r	.
{8g	{Der
=50	=50
[4g	Va-
(16g]	|
16a-)	|
(16g	-ter
16a-)	|
(16g	hoch-
16f)	|
(16e-	-ge-
16d)	|
=51	=51
(16.e-	-bo-
32f	|
16.d	|
32e-)	|
4c	-ren,
8r	.
8e-	die
=52	=52
[4b-	Mut-
(16b-]	|
16cc)	|
(16b-	-ter
16cc)	|
(16b-	hoch-
16a-)	|
(16g	-er-
16f)	|
=53	=53
(16.g	-ko-
32a-	|
16.f	|
32g)	|
4e-}	-ren,}
8r	.
{8b-	{hat
=54	=54
(16b-	hoch-
16bn	|
16cc	|
16g	|
16a-	|
16c	|
4f)	|
8a-	-ge-
=55	=55
(16a-	-bor'n
16cc	|
16b-	|
16e-	|
16g	|
16B-	|
4e-)	|
8g	ihr
=56	=56
(16g	To2ch-
16b-	|
16a-	|
16c	|
16d	|
16B-	|
4f)	|
8A-	-ter-
=57	=57
8G	-lein,
8G	ja,
4b-}	ja,}
8r	.
{8b-	{hat
=58	=58
(16b-	hoch-
16bn	|
16cc	|
16g	|
16a-	|
16c	|
4f)	|
8a-	-ge-
=59	=59
(16a-	-bor'n
16cc	|
16b-	|
16e-	|
16g	|
16B-	|
4e-)	|
8g	ihr
=60	=60
(16g	To2ch-
16b-	|
16a-	|
16c	|
16d	|
16B-	|
4f)	|
8d	-ter-
=61	=61
8e-	-lein,
8G	ja,
[2b-	ja!
=62	=62
2.b-_	|
=63	=63
2b-]}	|}
4r	.
=64	=64
2.r	.
=65	=65
4r	.
4r	.
8r	.
{8b-	{Mein
=66	=66
4.b-	hoch-
8e-	-ge-
8f	-bor'-
8g	-nes
=67	=67
8.B-	Scha2t-
16c	-ze-
4B-	-lein
8r	.
8b-	ist
=68	=68
[4b-	nicht
16b-]	|
(16ee-	hoch-
16b-	|
16g)	|
(16e-	-mu2-
16g)	|
(16e-	-thig,
16c)	|
=69	=69
8.B-	das
16c	ist
4B-}	fein,}
8r	.
{8g	{es
=70	=70
[4g	kommt
(16g]	|
16a-)	|
(16g	ja
16a-)	|
(16g	hin
16f)	|
(16e-	und
16d)	|
=71	=71
(16.e-	wie-
32f	|
16.d	|
32e-)	|
4c	-der
8r	.
8g	von
=72	=72
[4g	sei-
16g]	|
(b-q	|
16a-)	|
16g	ner
(b-q	|
16a-)	|
(16g	-Ho2h
16f)	|
(16e-	her-
16d)	|
=73	=73
(16.e-	-nie-
32f	|
16.d	|
32e-)	|
4c}	-der}
4r	.
=74	=74
4r	.
4r	.
8r	.
{8f	{zu
=75	=75
8.e-	mir
16e-	ge-
4e-	-stieg'n
4r	.
=76	=76
4r	.
4r	.
8r	.
8a-	im
=77	=77
8.g	Mon-
16g	-den-
4g}	-schein.}
8r	.
{8g	{Mein
=78	=78
4.cc	hoch-
8e-	-ge-
8f	-bor'-
8g	-nes
=79	=79
8.G	Scha2t-
16A-	-ze-
4G	-lein
8r	.
8g	sprach
=80	=80
[4cc	ju2ngst:
(16cc]	|
16a-)	|
(16g	der
16a-)	|
(16g	al-
16e-)	|
(16c	te
16d)	|
=81	=81
8.G	-Thurm
16A-	fa2llt
4G}	ein,}
8r	.
{8g	{man
=82	=82
[4g	merkt's
(16g]	|
16a-)	|
(16g	an
16a-)	|
(16g	sei-
16f)	|
(16e-	-nem
16d)	|
=83	=83
(16.e-	Wan-
32f	|
16.d	|
32e-)	|
4c	-ken,
8r	.
8e-	will
=84	=84
[4b-	nicht
(16b-]	|
16cc)	|
(16b-	in
16cc)	|
(16b-	Lu2f
16a-)	|
(16g	ten
16f)	|
=85	=85
(16.g	schwan-
32a-	|
16.f	|
32g)	|
4e-}	-ken,}
8r	.
{8b-	{will
=86	=86
(16b-	dein
16bn	|
16cc	|
16g	|
16a-	|
16c	|
4f)	|
8a-	zu
=87	=87
(16a-	eb'-
16cc	|
16b-	|
16e-	|
16g	|
16B-	|
4e-)	|
8g	-ner
=88	=88
(16g	Er-
16b-	|
16a-	|
16c	|
16d	|
16B-	|
4f)	|
8A-	-de
=89	=89
8G	sein,
8G	ja
4b-}	dein,}
8r	.
{8b-	{will
=90	=90
(16b-	dein
16bn	|
16cc	|
16g	|
16a-	|
16c	|
4f)	|
8a-	zu
=91	=91
(16a-	eb'-
16cc	|
16b-	|
16e-	|
16g	|
16B-	|
4e-)	|
8g	-ner
=92	=92
(16g	Er-
16b-	|
16a-	|
16c	|
16d	|
16B-	|
4f)	|
8d	-de
=93	=93
8e-	sein,
8G	ja
[2b-	dein!
=94	=94
2.b-_	|
=95	=95
2b-]}	|}
4r	.
=96	=96
2.r	.
=97	=97
2.r	.
==	==
*-	*-
